packages/ffe-icons/icons/filled/md/dataset_linked.svg

<svg xmlns="http://www.w3.org/2000/svg" height="24" viewBox="0 -960 960 960" width="24"><path d="M212.309-180.001q-30.308 0-51.308-21t-21-51.308v-535.382q0-30.308 21-51.308t51.308-21h535.382q30.308 0 51.308 21t21 51.308v236.153q0 15.365-10.395 25.76-10.394 10.394-25.759 10.394h-229.23q-38.539 0-72.808 11.846-34.269 11.846-63.269 33.539h-92.384q-15.365 0-25.759 10.394t-10.394 25.759v67.692q0 15.365 10.394 25.759t25.759 10.394h2.231q-3.154 12.308-4.231 24.501-1.077 12.192-1.077 25.5 0 14.538 2.039 28.999 2.038 14.462 5.884 28 3.846 16.461-4.943 29.73-8.79 13.27-24.518 13.27h-89.23Zm347.691 40q-57.749 0-98.874-41.125-41.125-41.125-41.125-98.874 0-57.749 41.125-98.874 41.125-41.125 98.874-41.125h46.154q12.75 0 21.375 8.629t8.625 21.384q0 12.756-8.625 21.371Q618.904-360 606.154-360H560q-33 0-56.5 23.5T480-280q0 33 23.5 56.5T560-200h46.154q12.75 0 21.375 8.629 8.625 8.628 8.625 21.384 0 12.755-8.625 21.37-8.625 8.616-21.375 8.616H560Zm29.999-110q-12.749 0-21.374-8.628Q560-267.258 560-280.013q0-12.756 8.625-21.371 8.625-8.615 21.374-8.615h180.002q12.749 0 21.374 8.628Q800-292.742 800-279.987q0 12.756-8.625 21.371-8.625 8.615-21.374 8.615H589.999Zm210.001 110h-46.154q-12.75 0-21.375-8.629t-8.625-21.384q0-12.756 8.625-21.371Q741.096-200 753.846-200H800q33 0 56.5-23.5T880-280q0-33-23.5-56.5T800-360h-46.154q-12.75 0-21.375-8.629-8.625-8.628-8.625-21.384 0-12.755 8.625-21.37 8.625-8.616 21.375-8.616H800q57.749 0 98.874 40.723 41.125 40.723 41.125 99.399 0 57.799-41.125 98.838-41.125 41.038-98.874 41.038ZM290.001-673.846v67.692q0 15.365 10.394 25.759t25.759 10.394h67.692q15.365 0 25.759-10.394t10.394-25.759v-67.692q0-15.365-10.394-25.759t-25.759-10.394h-67.692q-15.365 0-25.759 10.394t-10.394 25.759Zm276.153 103.845h67.692q15.365 0 25.759-10.394t10.394-25.759v-67.692q0-15.365-10.394-25.759t-25.759-10.394h-67.692q-15.365 0-25.759 10.394t-10.394 25.759v67.692q0 15.365 10.394 25.759t25.759 10.394Z"/></svg>

<svg xmlns="http://www.w3.org/2000/svg" height="24" viewBox="0 -960 960 960" width="24"><path d="M212.31-180Q182-180 161-201q-21-21-21-51.31v-535.38Q140-818 161-839q21-21 51.31-21h535.38Q778-860 799-839q21 21 21 51.31v236.15q0 15.37-10.4 25.76-10.39 10.4-25.76 10.4H554.61q-38.53 0-72.8 11.84-34.27 11.85-63.27 33.54h-92.39q-15.36 0-25.76 10.39Q290-449.21 290-433.85v67.7q0 15.36 10.39 25.76Q310.79-330 326.15-330h2.24q-3.16 12.31-4.24 24.5-1.07 12.19-1.07 25.5 0 14.54 2.04 29 2.03 14.46 5.88 28 3.85 16.46-4.94 29.73Q317.27-180 301.54-180h-89.23ZM560-140q-57.75 0-98.87-41.13Q420-222.25 420-280q0-57.75 41.13-98.87Q502.25-420 560-420h46.15q12.75 0 21.38 8.63 8.62 8.63 8.62 21.38 0 12.76-8.62 21.37-8.63 8.62-21.38 8.62H560q-33 0-56.5 23.5T480-280q0 33 23.5 56.5T560-200h46.15q12.75 0 21.38 8.63 8.62 8.63 8.62 21.38 0 12.76-8.62 21.37-8.63 8.62-21.38 8.62H560Zm30-110q-12.75 0-21.38-8.63-8.62-8.63-8.62-21.38 0-12.76 8.62-21.37Q577.25-310 590-310h180q12.75 0 21.38 8.63 8.62 8.63 8.62 21.38 0 12.76-8.62 21.37Q782.75-250 770-250H590Zm210 110h-46.15q-12.75 0-21.38-8.63-8.62-8.63-8.62-21.38 0-12.76 8.62-21.37 8.63-8.62 21.38-8.62H800q33 0 56.5-23.5T880-280q0-33-23.5-56.5T800-360h-46.15q-12.75 0-21.38-8.63-8.62-8.63-8.62-21.38 0-12.76 8.62-21.37 8.63-8.62 21.38-8.62H800q57.75 0 98.87 40.72Q940-338.55 940-279.88q0 57.8-41.13 98.84Q857.75-140 800-140ZM290-673.85v67.7q0 15.36 10.39 25.76Q310.79-570 326.15-570h67.7q15.36 0 25.76-10.39Q430-590.79 430-606.15v-67.7q0-15.36-10.39-25.76Q409.21-710 393.85-710h-67.7q-15.36 0-25.76 10.39Q290-689.21 290-673.85ZM566.15-570h67.7q15.36 0 25.76-10.39Q670-590.79 670-606.15v-67.7q0-15.36-10.39-25.76Q649.21-710 633.85-710h-67.7q-15.36 0-25.76 10.39Q530-689.21 530-673.85v67.7q0 15.36 10.39 25.76Q550.79-570 566.15-570Z"/></svg>
